X: 1
T:Luck Penny, The
R:jig
M:6/8
L:1/8
K:G
BAG AFD|~G3 FGA|BAG BdB|cAG FGA|!
BAG AFD|GBd ~g3|def gdB|1 cAF G2A:|2 cAF G2B||!
d2g gfg|a2g fga|bag agf|def g2a|!
bag afd|gag fed|def gdB|1 cAF G2B:|2 cAF GBc||!
dBG GFG|dBG GAB|cA=F FEF|cA=F FBc|!
dBG GBd|gag fed|def gdB|cAF G (3ABc|!
"version 2"
|dBG GFG|DGB dBG|cA=F FEF|C=FA cBc|!
dBG GBd|gag fed|def gdB|cAF G2A||!
